X:2126
L:1/8
M:3/4
K:G
 GA | B g3 af | g d3 Bd | c2 A3 F | G4 |: f>g | a2 d2 g>f | e2 d3 B | c2 d>B GB | A4 :|

